src/svgicons/calendar.svg

<svg width="20" height="20" viewBox="0 0 20 20" fill="none" xmlns="http://www.w3.org/2000/svg">
<path fill-rule="evenodd" clip-rule="evenodd" d="M5 0.25C5.41421 0.25 5.75 0.585786 5.75 1V2H14.25V1C14.25 0.585786 14.5858 0.25 15 0.25C15.4142 0.25 15.75 0.585786 15.75 1V2H17C18.6569 2 20 3.34315 20 5V17C20 18.6569 18.6569 20 17 20H3C1.34315 20 0 18.6569 0 17V5C0 3.34315 1.34315 2 3 2H4.25V1C4.25 0.585786 4.58579 0.25 5 0.25ZM14.25 3.5V5C14.25 5.41421 14.5858 5.75 15 5.75C15.4142 5.75 15.75 5.41421 15.75 5V3.5H17C17.8284 3.5 18.5 4.17157 18.5 5V8.25H1.5V5C1.5 4.17157 2.17157 3.5 3 3.5H4.25V5C4.25 5.41421 4.58579 5.75 5 5.75C5.41421 5.75 5.75 5.41421 5.75 5V3.5H14.25ZM1.5 9.75V17C1.5 17.8284 2.17157 18.5 3 18.5H17C17.8284 18.5 18.5 17.8284 18.5 17V9.75H1.5Z" fill="#9BAAD3"/>
</svg>

<!-- Generated by IcoMoon.io -->
<svg version="1.1" xmlns="http://www.w3.org/2000/svg" width="20" height="20" viewBox="0 0 20 20">
<title>calendar</title>
<path fill="#9baad3" d="M5 0.25c0.414 0 0.75 0.336 0.75 0.75v1h8.5v-1c0-0.414 0.336-0.75 0.75-0.75s0.75 0.336 0.75 0.75v1h1.25c1.657 0 3 1.343 3 3v12c0 1.657-1.343 3-3 3h-14c-1.657 0-3-1.343-3-3v-12c0-1.657 1.343-3 3-3h1.25v-1c0-0.414 0.336-0.75 0.75-0.75zM14.25 3.5h-8.5v1.5c0 0.414-0.336 0.75-0.75 0.75s-0.75-0.336-0.75-0.75v-1.5h-1.25c-0.828 0-1.5 0.672-1.5 1.5v3.25h17v-3.25c0-0.828-0.672-1.5-1.5-1.5h-1.25v1.5c0 0.414-0.336 0.75-0.75 0.75s-0.75-0.336-0.75-0.75v-1.5zM1.5 9.75v7.25c0 0.828 0.672 1.5 1.5 1.5h14c0.828 0 1.5-0.672 1.5-1.5v-7.25h-17z"></path>
</svg>
